X: 43471
T: Yellow Glove, The
R: reel
M: 4/4
K: Dmixolydian
A,|:DEFG Ad~d2|efge (3aba ge|fd~d2 ABcd|cAGE CDEC|
DEFG Ad~d2|efge a2 ge|defd ~c3 A|1 GECE FDDA,:|2 GECE FDDA||

